packages/dnb-ui-lib/assets/icons/coins_2.svg

<svg width="16" height="16" viewBox="0 0 16 16" fill="none" xmlns="http://www.w3.org/2000/svg">
<path d="M8.46667 3.53804C8.46667 4.56897 6.7952 5.40471 4.73333 5.40471C2.67147 5.40471 1 4.56897 1 3.53804M8.46667 3.53804C8.46667 2.50711 6.7952 1.67138 4.73333 1.67138C2.67147 1.67138 1 2.50711 1 3.53804M8.46667 3.53804V6.00471M1 3.53804V12.2001C1 13.1864 2.52969 13.994 4.46778 14.0621M1 6.40471C1 7.39109 2.52969 8.19864 4.46778 8.26673M1 9.39006C1 10.3764 2.52969 11.182 4.46778 11.2501M15 10.1334C15 11.1643 13.3285 12.0001 11.2667 12.0001C9.2048 12.0001 7.53333 11.1643 7.53333 10.1334M15 10.1334C15 9.10247 13.3285 8.26673 11.2667 8.26673C9.2048 8.26673 7.53333 9.10247 7.53333 10.1334M15 10.1334V13.1334C15 14.1644 13.3287 15.0001 11.2667 15.0001C9.20462 15.0001 7.53333 14.1644 7.53333 13.1334V10.1334" stroke="black" stroke-width="1.5" stroke-linecap="round" stroke-linejoin="round"/>
</svg>

<svg width="16" height="16" viewBox="0 0 16 16" fill="none" xmlns="http://www.w3.org/2000/svg"><path d="M8.467 3.538c0 1.031-1.672 1.867-3.734 1.867C2.671 5.405 1 4.569 1 3.538m7.467 0c0-1.03-1.672-1.867-3.734-1.867C2.671 1.671 1 2.507 1 3.538m7.467 0v2.467M1 3.538V12.2c0 .986 1.53 1.794 3.468 1.862M1 6.405c0 .986 1.53 1.794 3.468 1.862M1 9.39c0 .986 1.53 1.792 3.468 1.86M15 10.133C15 11.164 13.329 12 11.267 12c-2.062 0-3.734-.836-3.734-1.867m7.467 0c0-1.03-1.671-1.866-3.733-1.866-2.062 0-3.734.835-3.734 1.866m7.467 0v3C15 14.164 13.329 15 11.267 15c-2.062 0-3.734-.836-3.734-1.867v-3" stroke="#000" stroke-width="1.5" stroke-linecap="round" stroke-linejoin="round"/></svg>
